static/markerSkyBlue.svg

<svg width="30" height="36" viewBox="0 0 30 36" fill="none" xmlns="http://www.w3.org/2000/svg">
<path d="M25.2 4.31671C22.14 1.25671 18.07 -0.173289 14.06 0.0167109C10.52 0.186711 7.02 1.61671 4.32 4.32671C-1.44 10.0867 -1.44 19.4367 4.32 25.2067L14.76 35.6467L25.2 25.2067C30.96 19.4467 30.96 10.0967 25.2 4.32671V4.31671Z" fill="#05D9F5"/>
<path d="M18.456 5C20.4602 5.30393 22 7.02758 22 9.10512C22 9.98776 21.7238 10.8038 21.2552 11.4741" stroke="white" stroke-width="0.6" stroke-miterlimit="10" stroke-linecap="round"/>
<path d="M15.4435 5.69601C15.9498 5.34628 16.5397 5.1048 17.1757 5.00488" stroke="white" stroke-width="0.6" stroke-miterlimit="10" stroke-linecap="round"/>
<path d="M20.113 12.585C19.456 13.0139 18.6694 13.2637 17.8242 13.2637C15.5188 13.2637 13.6485 11.4026 13.6485 9.10859C13.6485 8.28007 13.8911 7.50568 14.3137 6.86035" stroke="white" stroke-width="0.6" stroke-miterlimit="10"/>
<path d="M21.2329 11.4619L15.5287 5.78592C15.2182 5.47699 14.7155 5.47634 14.4059 5.78445C14.0962 6.09256 14.0969 6.59276 14.4073 6.90168L20.1116 12.5777C20.422 12.8866 20.9247 12.8872 21.2344 12.5791C21.544 12.271 21.5434 11.7708 21.2329 11.4619Z" stroke="white" stroke-width="0.6" stroke-miterlimit="10"/>
<path d="M13.7908 16.2207L17.4686 13.248" stroke="white" stroke-width="0.6" stroke-miterlimit="10" stroke-linecap="round"/>
<path d="M13.6694 9.47949L6.23001 18.7098L8.25513 20.6874L12.4937 17.2651" stroke="white" stroke-width="0.6" stroke-miterlimit="10" stroke-linecap="round"/>
<path d="M7.05429 17.6807L9.26352 19.8789" stroke="white" stroke-width="0.6" stroke-miterlimit="10" stroke-linecap="round"/>
<path d="M14.5678 13.3025L13.6063 12.3457L11.34 14.6008L12.3015 15.5576L14.5678 13.3025Z" stroke="white" stroke-width="0.6" stroke-miterlimit="10" stroke-linecap="round"/>
<path d="M12.4937 13.4551L13.4518 14.4127" stroke="white" stroke-width="0.6" stroke-miterlimit="10" stroke-linecap="round"/>
<path d="M7.21327 19.668C6.24673 20.509 5.79066 21.5373 6.09192 22.2743C6.13376 22.3742 6.30112 22.7864 6.64422 22.8613C7.31368 23.007 7.69444 21.6622 8.55218 21.5082C9.65261 21.3125 10.1045 23.3068 11.5941 23.8605C14.2426 24.8431 17.6945 20.2925 18.7699 21.0669C19.0627 21.2792 19.2217 21.9121 18.5941 23.7981" stroke="white" stroke-width="0.6" stroke-miterlimit="10" stroke-linecap="round"/>
</svg>

<svg xmlns="http://www.w3.org/2000/svg" width="30" height="36" fill="none"><path fill="#05D9F5" d="M25.2 4.317a14.715 14.715 0 0 0-11.14-4.3c-3.54.17-7.04 1.6-9.74 4.31-5.76 5.76-5.76 15.11 0 20.88l10.44 10.44 10.44-10.44c5.76-5.76 5.76-15.11 0-20.88v-.01Z"/><path stroke="#fff" stroke-linecap="round" stroke-miterlimit="10" stroke-width=".6" d="M18.456 5C20.46 5.304 22 7.028 22 9.105a4.12 4.12 0 0 1-.745 2.37M15.444 5.696a4.191 4.191 0 0 1 1.732-.691"/><path stroke="#fff" stroke-miterlimit="10" stroke-width=".6" d="M20.113 12.585a4.174 4.174 0 0 1-2.289.679c-2.305 0-4.176-1.861-4.176-4.155 0-.829.243-1.603.666-2.249M21.233 11.462l-5.704-5.676a.797.797 0 0 0-1.123-.002.787.787 0 0 0 .001 1.118l5.705 5.676c.31.309.813.31 1.122.001a.787.787 0 0 0-.001-1.117Z"/><path stroke="#fff" stroke-linecap="round" stroke-miterlimit="10" stroke-width=".6" d="m13.79 16.22 3.679-2.972M13.67 9.48l-7.44 9.23 2.025 1.977 4.239-3.422M7.054 17.68l2.21 2.199"/><path stroke="#fff" stroke-linecap="round" stroke-miterlimit="10" stroke-width=".6" d="m14.568 13.303-.962-.957L11.34 14.6l.962.957 2.266-2.255ZM12.494 13.455l.958.958M7.213 19.668c-.966.841-1.422 1.87-1.121 2.606.042.1.21.512.552.587.67.146 1.05-1.199 1.908-1.353 1.1-.195 1.553 1.799 3.042 2.352 2.649.983 6.1-3.567 7.176-2.793.293.212.452.845-.176 2.731"/></svg>
